icons/wordpress.svg

<svg width="24" height="24" viewBox="0 0 24 24" fill="none" xmlns="http://www.w3.org/2000/svg">
<path fill-rule="evenodd" clip-rule="evenodd" d="M5.125 7C5.91302 5.91502 6.94688 5.03217 8.14189 4.4238C9.3369 3.81544 10.659 3.49886 12 3.5C13.2343 3.49874 14.4539 3.76689 15.5738 4.28574C16.6937 4.80459 17.6869 5.56163 18.484 6.504C17.094 6.031 15.578 7.347 16.071 8.9L16.724 10.959L14.957 15.327L13.067 10.627L12.413 9H13C13.2652 9 13.5196 8.89464 13.7071 8.70711C13.8946 8.51957 14 8.26522 14 8C14 7.73478 13.8946 7.48043 13.7071 7.29289C13.5196 7.10536 13.2652 7 13 7H10C9.73478 7 9.48043 7.10536 9.29289 7.29289C9.10536 7.48043 9 7.73478 9 8C9 8.26522 9.10536 8.51957 9.29289 8.70711C9.48043 8.89464 9.73478 9 10 9H10.258L11.058 10.992L9.2 15.417L6.505 9H7C7.26522 9 7.51957 8.89464 7.70711 8.70711C7.89464 8.51957 8 8.26522 8 8C8 7.73478 7.89464 7.48043 7.70711 7.29289C7.51957 7.10536 7.26522 7 7 7H5.125ZM4.187 8.647C3.63164 9.94296 3.40738 11.3567 3.53442 12.7609C3.66146 14.1651 4.13581 15.5157 4.91474 16.6909C5.69368 17.8662 6.75273 18.8292 7.9965 19.4933C9.24028 20.1573 10.6297 20.5016 12.0396 20.495C13.4496 20.4884 14.8357 20.1311 16.0732 19.4555C17.3107 18.7798 18.3607 17.8069 19.1286 16.6244C19.8965 15.4419 20.3582 14.087 20.4721 12.6816C20.586 11.2763 20.3485 9.86471 19.781 8.574C19.761 8.731 19.72 8.887 19.659 9.039L18.713 11.375L15.881 18.375C15.8061 18.5596 15.6778 18.7176 15.5125 18.8287C15.3472 18.9399 15.1525 18.9992 14.9533 18.9989C14.7541 18.9987 14.5596 18.939 14.3945 18.8275C14.2295 18.716 14.1015 18.5577 14.027 18.373L12.12 13.631L10.122 18.387C10.0457 18.5686 9.91756 18.7236 9.75354 18.8326C9.58951 18.9417 9.39695 18.9998 9.2 18.9998C9.00305 18.9998 8.81049 18.9417 8.64646 18.8326C8.48244 18.7236 8.35426 18.5686 8.278 18.387L4.187 8.647V8.647ZM12 1.5C6.201 1.5 1.5 6.201 1.5 12C1.5 17.799 6.201 22.5 12 22.5C17.799 22.5 22.5 17.799 22.5 12C22.5 6.201 17.799 1.5 12 1.5Z" fill="black"/>
</svg>

<svg
  width="24"
  height="24"
  viewBox="0 0 24 24"
  xmlns="http://www.w3.org/2000/svg"
>
  <path
    fill-rule="evenodd"
    clip-rule="evenodd"
    d="M5.125 7A8.488 8.488 0 0 1 12 3.5a8.48 8.48 0 0 1 6.484 3.004c-1.39-.473-2.906.843-2.413 2.396l.653 2.059-1.767 4.368-1.89-4.7L12.413 9H13a1 1 0 1 0 0-2h-3a1 1 0 0 0 0 2h.258l.8 1.992L9.2 15.417 6.505 9H7a1 1 0 0 0 0-2H5.125zm-.938 1.647a8.5 8.5 0 1 0 15.594-.073 1.89 1.89 0 0 1-.122.465l-.946 2.336-2.832 7a1 1 0 0 1-1.854-.002l-1.907-4.742-1.998 4.756a1 1 0 0 1-1.844 0l-4.091-9.74zM12 1.5C6.201 1.5 1.5 6.201 1.5 12S6.201 22.5 12 22.5 22.5 17.799 22.5 12 17.799 1.5 12 1.5z"
  />
</svg>
